src/microsoft-word.svg

<svg viewBox="0 0 24 24" fill="none" xmlns="http://www.w3.org/2000/svg">
<path d="M21.1667 3H7.83329C7.37308 3 7 3.36955 7 3.82538V7.33333L14.5 9.5L22 7.33333V3.82538C22 3.60647 21.9122 3.39653 21.7559 3.24174C21.5996 3.08695 21.3877 3 21.1667 3Z" fill="#41A5EE"/>
<path d="M7 7.25V11.583L14.5 13.75L22 12V7.25H7Z" fill="#2B7CD3"/>
<path d="M22 11.75H7V16.083L14.5 18.25L22 16.083V11.75Z" fill="#185ABD"/>
<path d="M22 16H7V19.4405C7 19.8876 7.3731 20.25 7.83334 20.25H21.1667C21.6269 20.25 22 19.8876 22 19.4405V16Z" fill="#103F91"/>
<path d="M2.83331 6H11.1667C11.3877 6 11.5996 6.09657 11.7559 6.26848C11.9122 6.44039 12 6.67355 12 6.91666V16.0833C12 16.3264 11.9122 16.5596 11.7559 16.7315C11.5996 16.9034 11.3877 17 11.1667 17H2.83331C2.37308 17 2 16.5896 2 16.0833V6.91666C2 6.41042 2.37308 6 2.83331 6Z" fill="#185ABD"/>
<path d="M9.655 15H8.445L7.034 10.17L5.555 15H4.345L3 8H4.21L5.151 12.9L6.563 8.14H7.571L8.916 12.9L9.857 8H11L9.655 15Z" fill="white"/>
</svg>

<svg xmlns="http://www.w3.org/2000/svg" fill="none" viewBox="0 0 24 24"><path fill="#41A5EE" d="M21.167 3H7.833A.83.83 0 0 0 7 3.825v3.508L14.5 9.5 22 7.333V3.825a.821.821 0 0 0-.244-.583.837.837 0 0 0-.59-.242Z"/><path fill="#2B7CD3" d="M7 7.25v4.333l7.5 2.167L22 12V7.25H7Z"/><path fill="#185ABD" d="M22 11.75H7v4.333l7.5 2.167 7.5-2.167V11.75Z"/><path fill="#103F91" d="M22 16H7v3.44c0 .448.373.81.833.81h13.334c.46 0 .833-.362.833-.81V16Z"/><path fill="#185ABD" d="M2.833 6h8.334c.22 0 .433.097.589.268a.965.965 0 0 1 .244.649v9.166a.965.965 0 0 1-.244.649.797.797 0 0 1-.59.268H2.834c-.46 0-.833-.41-.833-.917V6.917C2 6.41 2.373 6 2.833 6Z"/><path fill="#fff" d="M9.655 15h-1.21l-1.411-4.83L5.555 15h-1.21L3 8h1.21l.941 4.9 1.412-4.76h1.008l1.345 4.76.941-4.9H11l-1.345 7Z"/></svg>
